X:1
T:Title
%%score { 1 | 2 }
L:1/8
M:4/4
K:Eb
V:1 treble nm="Grand Piano"
V:2 bass 
V:1
 z4 z2[Q:1/4=100] [GB]2 | [GB]3 [GB] [Ac]2 [AB]2 | [Ge]2 [GB]2 z2 [GB]2 | B3 B B2 A2 | %4
 G4 z2 [FG]2 | [EG]3 [EG] [FA]2 [FG]2 | [Ec]2 [EG]2 z2 [Ee]2 | [Fd]3 c B2 =A2 | [DB]4 z2 B2 | %9
 B3 B c2 d2 | e2 B2 z2 B2 | B3 B c2 B2 | [CA]6 [CA]2 | [CA]3 [CA] [=B,E]2 [B,F]2 | %14
 [B,G]2 [B,G]4 [B,EG]2 | [CDA]2 [B,DG]2 [A,DF]3 [G,B,E] | [G,B,E]6 z2 |] %17
V:2
 z4 z2 [E,E]2 | [E,E]3 [E,E] [E,C]2 [E,D]2 | [E,E]2 [E,E]2 z2 [E,E]2 | %3
 [B,EG]3 [B,EG] [B,DG]2 [B,DF]2 | [E,B,E]4 z2 [D,=B,]2 | [C,C]3 [C,C] [D,=B,]2 [D,B,]2 | %6
 [C,C]2 [C,C]2 z2 [C,G,]2 | [D,B,]3 [E,G,E] [F,D]2 [E,CE]2 | [B,,B,]4 z2[K:treble] [B,DF]2 | %9
 [A,DF]3 [A,DF] [A,DF]2 [A,B,F]2 | [G,B,E]2 [G,B,E]2 z2[K:bass] [F,A,D]2 | %11
 [E,G,_D]3 [E,G,D] [E,F,D]2 [E,G,D]2 | [A,,E,]6 [A,,E,]2 | [A,,E,]3 [A,,E,] [A,,E,]2 [A,,E,]2 | %14
 [B,,E,]2 [B,,E,]4 B,,2 | B,,2 B,,2 B,,3 E, | E,6 z2 |] %17

